X: 1
T: my name is jonas lute
M: 6/8
L: 1/8
Q:1/4=160
K:C
C,3/2G,3/2 B,3/2D,3/2|A,3/2E,3/2 B,3/2D,3/2|C,3/2G,3/2 B,3/2D,3/2|A,3/2E,3/2 B,3/2D,3/2|C,C,C, G,G,G,|A,A,A, F,F,F,|C,3/2G,3/2 B,3/2D,3/2|A,3/2E,3/2 B,3/2D,3/2|C,C,C, G,G,G,|A,A,A, F,F,F,|C,C,C, G,G,G,|A,A,A, F,F,F,|C,C,C, G,G,G,|A,A,A, F,F,F,|C,C,C, G,G,G,|A,A,A, F,F,F,|C,C,C, G,G,G,|A,A,A, F,F,F,|C,C,C, G,G,G,|A,A,A, F,F,F,|C,C,C, A,A,A,|G,6|C,C,C, A,A,A,|G,6|C,C,C, A,A,A,|G,6|C,C,C, A,A,A,|G,6|C,3/2G,3/2 B,3/2D,3/2|A,3/2E,3/2 B,3/2D,3/2|C,3/2G,3/2 B,3/2D,3/2|A,3/2E,3/2 B,3/2D,3/2|C,C,C, G,G,G,|A,A,A, F,F,F,|C,3/2G,3/2 B,3/2D,3/2|A,3/2E,3/2 B,3/2D,3/2|C,C,C, G,G,G,|A,A,A, F,F,F,|C,C,C, G,G,G,|A,A,A, F,F,F,|C,C,C, G,G,G,|A,A,A, F,F,F,|C,C,C, G,G,G,|A,A,A, F,F,F,|C,C,C, G,G,G,|A,A,A, F,F,F,|C,C,C, G,G,G,|A,A,A, F,F,F,|C,C,C, A,A,A,|G,6|C,C,C, A,A,A,|G,6|C,C,C, A,A,A,|G,6|C,C,C, A,A,A,|G,6|F,F,F, F,F,F,|G,G,G, G,G,G,|F,F,F, F,F,F,|G,G,G, G,G,G,|F,F,F, F,F,F,|G,G,G, G,G,G,|F,F,F, F,F,F,|G,G,G, G,G,G,|C,/2C,/2C,/2C,/2C,/2G,/2 C,/2C,/2C,/2C,/2C,/2G,/2|C,/2C,/2C,/2C,/2C,/2G,/2 C,/2C,/2C,/2C,/2C,/2G,/2|C,/2C,/2C,/2C,/2C,/2G,/2 C,/2C,/2C,/2C,/2C,/2G,/2|C,/2C,/2C,/2C,/2C,/2G,/2 C,/2C,/2C,/2C,/2C,/2G,/2|C,C,C, A,A,A,|G,6|C,C,C, A,A,A,|G,6|C,C,C, A,A,A,|G,6|C,C,C, A,A,A,|G,6|F,F,F, F,F,F,|G,G,G, G,G,G,|F,F,F, F,F,F,|G,G,G, G,G,G,|C,C,C, A,A,A,|G,6|C,C,C, A,A,A,|G,6|C,C,C, A,A,A,|G,6|C,C,C, A,A,A,|G,6|E,/2E,E,/2E, F,F,F,|G,/2G,G,/2G, G,G,G,|E,/2E,E,/2E, F,F,F,|G,6-|G,4-G,z|C,3/2G,3/2 B,3/2D,3/2|A,3/2E,3/2 B,3/2D,3/2|C,3/2G,3/2 B,3/2D,3/2|A,3/2E,3/2 B,3/2D,3/2|C,6-|C,3 

